icons/apps/software/akregator.svg

<?xml version="1.0" encoding="UTF-8" standalone="no"?>
<!-- Created with Inkscape (http://www.inkscape.org/) -->

<svg
   xmlns:dc="http://purl.org/dc/elements/1.1/"
   xmlns:cc="http://creativecommons.org/ns#"
   xmlns:rdf="http://www.w3.org/1999/02/22-rdf-syntax-ns#"
   xmlns:svg="http://www.w3.org/2000/svg"
   xmlns="http://www.w3.org/2000/svg"
   xmlns:xlink="http://www.w3.org/1999/xlink"
   xmlns:sodipodi="http://sodipodi.sourceforge.net/DTD/sodipodi-0.dtd"
   xmlns:inkscape="http://www.inkscape.org/namespaces/inkscape"
   width="48"
   height="48"
   id="svg5453"
   version="1.1"
   inkscape:version="0.91 r13725"
   sodipodi:docname="akregator.svg">
  <defs
     id="defs5455">
    <linearGradient
       id="linearGradient4227"
       inkscape:collect="always">
      <stop
         id="stop4229"
         offset="0"
         style="stop-color:#292c2f;stop-opacity:1" />
      <stop
         id="stop4231"
         offset="1"
         style="stop-color:#000000;stop-opacity:0;" />
    </linearGradient>
    <linearGradient
       inkscape:collect="always"
       id="linearGradient4300-8-4">
      <stop
         style="stop-color:#f27935;stop-opacity:1"
         offset="0"
         id="stop4302-5-4" />
      <stop
         style="stop-color:#f2784b;stop-opacity:1"
         offset="1"
         id="stop4304-7-6" />
    </linearGradient>
    <linearGradient
       inkscape:collect="always"
       xlink:href="#linearGradient4300-8-4"
       id="linearGradient4188"
       x1="43"
       y1="40"
       x2="13"
       y2="4"
       gradientUnits="userSpaceOnUse" />
    <linearGradient
       inkscape:collect="always"
       xlink:href="#linearGradient4227"
       id="linearGradient4319"
       x1="24.131727"
       y1="27.131727"
       x2="38"
       y2="41"
       gradientUnits="userSpaceOnUse" />
    <linearGradient
       gradientTransform="matrix(1.1250015,0,0,1,-51.071966,0)"
       gradientUnits="userSpaceOnUse"
       y2="503.798"
       x2="409.57144"
       y1="543.79797"
       x1="409.57144"
       id="linearGradient4158"
       xlink:href="#linearGradient4159"
       inkscape:collect="always" />
    <linearGradient
       id="linearGradient4159"
       inkscape:collect="always">
      <stop
         id="stop4161"
         offset="0"
         style="stop-color:#1d1e1e;stop-opacity:1" />
      <stop
         id="stop4163"
         offset="1"
         style="stop-color:#44484c;stop-opacity:1" />
    </linearGradient>
    <linearGradient
       id="linearGradient4435-2"
       inkscape:collect="always">
      <stop
         id="stop4437-6"
         offset="0"
         style="stop-color:#c61423;stop-opacity:1" />
      <stop
         id="stop4439-7"
         offset="1"
         style="stop-color:#dc2b41;stop-opacity:1" />
    </linearGradient>
    <linearGradient
       id="linearGradient4143"
       inkscape:collect="always">
      <stop
         id="stop4145"
         offset="0"
         style="stop-color:#197cf1;stop-opacity:1" />
      <stop
         id="stop4147"
         offset="1"
         style="stop-color:#20bcfa;stop-opacity:1" />
    </linearGradient>
    <linearGradient
       id="linearGradient5022"
       inkscape:collect="always">
      <stop
         id="stop5024"
         offset="0"
         style="stop-color:#ffffff;stop-opacity:1;" />
      <stop
         id="stop5026"
         offset="1"
         style="stop-color:#ffffff;stop-opacity:0;" />
    </linearGradient>
    <linearGradient
       y2="503.798"
       x2="409.57144"
       y1="543.79797"
       x1="409.57144"
       gradientTransform="matrix(1.1250015,0,0,1,-437.64341,504.56422)"
       gradientUnits="userSpaceOnUse"
       id="linearGradient3156"
       xlink:href="#linearGradient4159"
       inkscape:collect="always" />
    <linearGradient
       y2="1038.3619"
       x2="7.2851796"
       y1="1050.339"
       x1="7.2851796"
       gradientTransform="matrix(-2.835215,0,0,2.8387461,45.655038,-1933.2836)"
       gradientUnits="userSpaceOnUse"
       id="linearGradient3158"
       xlink:href="#linearGradient4435-2"
       inkscape:collect="always" />
    <linearGradient
       y2="503.798"
       x2="396.57144"
       y1="520.79797"
       x1="396.57144"
       gradientTransform="translate(-386.57144,504.56422)"
       gradientUnits="userSpaceOnUse"
       id="linearGradient3160"
       xlink:href="#linearGradient4143"
       inkscape:collect="always" />
    <linearGradient
       y2="18.000015"
       x2="22.000011"
       y1="4"
       x1="7.9999962"
       gradientTransform="translate(-2.0000119,1004.3622)"
       gradientUnits="userSpaceOnUse"
       id="linearGradient3162"
       xlink:href="#linearGradient4227"
       inkscape:collect="always" />
    <linearGradient
       y2="504.798"
       x2="396.57144"
       y1="527.79797"
       x1="396.57144"
       gradientTransform="translate(-386.57144,504.56422)"
       gradientUnits="userSpaceOnUse"
       id="linearGradient3164"
       xlink:href="#linearGradient5022"
       inkscape:collect="always" />
  </defs>
  <sodipodi:namedview
     id="base"
     pagecolor="#ffffff"
     bordercolor="#666666"
     borderopacity="1.0"
     inkscape:pageopacity="0"
     inkscape:pageshadow="2"
     inkscape:zoom="1"
     inkscape:cx="30.635277"
     inkscape:cy="22.217104"
     inkscape:document-units="px"
     inkscape:current-layer="layer1"
     showgrid="false"
     fit-margin-top="0"
     fit-margin-left="0"
     fit-margin-right="0"
     fit-margin-bottom="0"
     inkscape:window-width="1561"
     inkscape:window-height="1006"
     inkscape:window-x="359"
     inkscape:window-y="0"
     inkscape:window-maximized="0"
     inkscape:showpageshadow="false"
     borderlayer="true"
     showguides="false"
     inkscape:snap-bbox="true"
     inkscape:bbox-paths="false"
     inkscape:bbox-nodes="true"
     inkscape:object-nodes="true"
     inkscape:snap-center="true">
    <inkscape:grid
       type="xygrid"
       id="grid4063" />
    <sodipodi:guide
       position="1.1650391e-05,47.999996"
       orientation="4,0"
       id="guide4146" />
    <sodipodi:guide
       position="1.1650391e-05,43.999996"
       orientation="0,48"
       id="guide4148" />
    <sodipodi:guide
       position="48.000012,43.999996"
       orientation="-4,0"
       id="guide4150" />
    <sodipodi:guide
       position="48.000012,47.999996"
       orientation="0,-48"
       id="guide4152" />
    <sodipodi:guide
       position="1.1650391e-05,4.0000264"
       orientation="4,0"
       id="guide4154" />
    <sodipodi:guide
       position="1.1650391e-05,2.6367188e-05"
       orientation="0,48"
       id="guide4156" />
    <sodipodi:guide
       position="48.000012,2.6367188e-05"
       orientation="-4,0"
       id="guide4158" />
    <sodipodi:guide
       position="48.000012,4.0000264"
       orientation="0,-48"
       id="guide4160" />
    <sodipodi:guide
       position="48.000012,48.000026"
       orientation="0,-4"
       id="guide4162" />
    <sodipodi:guide
       position="44.000012,48.000026"
       orientation="48,0"
       id="guide4164" />
    <sodipodi:guide
       position="44.000012,2.6367188e-05"
       orientation="0,4"
       id="guide4166" />
    <sodipodi:guide
       position="48.000012,2.6367188e-05"
       orientation="-48,0"
       id="guide4168" />
    <sodipodi:guide
       position="4.0000422,48.000026"
       orientation="0,-4"
       id="guide4170" />
    <sodipodi:guide
       position="4.2167969e-05,48.000026"
       orientation="48,0"
       id="guide4172" />
    <sodipodi:guide
       position="4.2167969e-05,2.6367188e-05"
       orientation="0,4"
       id="guide4174" />
    <sodipodi:guide
       position="4.0000422,43.999996"
       orientation="39.999969,0"
       id="guide4175" />
    <sodipodi:guide
       position="4.0000422,4.0000264"
       orientation="0,20"
       id="guide4177" />
    <sodipodi:guide
       position="24.000042,4.0000264"
       orientation="-39.999969,0"
       id="guide4179" />
    <sodipodi:guide
       position="24.000042,43.999996"
       orientation="0,-20"
       id="guide4181" />
    <sodipodi:guide
       position="4.0000422,23.999843"
       orientation="20,0"
       id="guide4185" />
    <sodipodi:guide
       position="44.000012,3.9998433"
       orientation="-20,0"
       id="guide4189" />
    <sodipodi:guide
       position="44.000012,23.999843"
       orientation="0,-39.999969"
       id="guide4191" />
  </sodipodi:namedview>
  <metadata
     id="metadata5458">
    <rdf:RDF>
      <cc:Work
         rdf:about="">
        <dc:format>image/svg+xml</dc:format>
        <dc:type
           rdf:resource="http://purl.org/dc/dcmitype/StillImage" />
        <dc:title />
      </cc:Work>
    </rdf:RDF>
  </metadata>
  <g
     inkscape:label="Capa 1"
     inkscape:groupmode="layer"
     id="layer1"
     transform="translate(-384.57143,-499.798)">
    <path
       style="opacity:1;fill:url(#linearGradient4188);fill-opacity:1;stroke:none;stroke-width:6;stroke-linecap:round;stroke-linejoin:round;stroke-miterlimit:4;stroke-dasharray:none;stroke-opacity:1"
       d="M 11 4 C 9.3380022 4 8 5.3380022 8 7 L 8 29.083984 A 7.9999943 7.9999943 0 0 0 4 36 A 7.9999943 7.9999943 0 0 0 12 44 A 7.9999943 7.9999943 0 0 0 18.919922 40 L 41 40 C 42.661998 40 44 38.661998 44 37 L 44 7 C 44 5.3380022 42.661998 4 41 4 L 11 4 z "
       transform="translate(384.57143,499.798)"
       id="path4177" />
    <path
       style="opacity:0.2;fill:url(#linearGradient4319);fill-opacity:1;stroke:none;stroke-width:6;stroke-linecap:round;stroke-linejoin:round;stroke-miterlimit:4;stroke-dasharray:none;stroke-opacity:1"
       d="M 26,21.75 12,20 l 6,6 -6,2 12,12 17,0 c 1.662,0 2,-1.25 2,-1.25 z m -11.171875,11.421875 -5.65625,5.65625 4.888672,4.890625 C 16.109136,43.172095 17.856929,41.834555 18.919922,40 l 2.738281,0 z"
       transform="translate(384.57143,499.798)"
       id="rect4307"
       inkscape:connector-curvature="0"
       sodipodi:nodetypes="cccccscccccccc" />
    <path
       style="opacity:1;fill:#b86333;fill-opacity:1;stroke:none;stroke-width:6;stroke-linecap:round;stroke-linejoin:round;stroke-miterlimit:4;stroke-dasharray:none;stroke-opacity:1"
       d="M 4.0234375 35.488281 A 7.9999943 7.9999943 0 0 0 4 36 A 7.9999943 7.9999943 0 0 0 12 44 A 7.9999943 7.9999943 0 0 0 18.919922 40 L 41 40 C 42.661998 40 44 38.661998 44 37 L 44 36 C 44 37.662 42.662 39 41 39 L 18.919922 39 A 7.9999943 7.9999943 0 0 1 12 43 A 7.9999943 7.9999943 0 0 1 4.0234375 35.488281 z "
       transform="translate(384.57143,499.798)"
       id="path4279" />
    <path
       style="opacity:1;fill:#ffffff;fill-opacity:1;stroke:none;stroke-width:6;stroke-linecap:round;stroke-linejoin:round;stroke-miterlimit:4;stroke-dasharray:none;stroke-opacity:1"
       d="m 12,16 0,4 c 8.836556,0 16,7.163444 16,16 l 4,0 C 32,24.954305 23.045695,16 12,16 Z m 0,8 0,4 c 4.418278,0 8,3.581722 8,8 l 4,0 C 24,29.372583 18.627417,24 12,24 Z m 0,8 c -2.209139,0 -4,1.790861 -4,4 0,2.209139 1.790861,4 4,4 2.209139,0 4,-1.790861 4,-4 0,-2.209139 -1.790861,-4 -4,-4 z"
       transform="translate(384.57143,499.798)"
       id="path4190"
       inkscape:connector-curvature="0"
       sodipodi:nodetypes="ccccccccccsssss" />
  </g>
</svg>

<?xml version="1.0" encoding="UTF-8" standalone="no"?>
<!-- Created with Inkscape (http://www.inkscape.org/) -->

<svg
   xmlns:dc="http://purl.org/dc/elements/1.1/"
   xmlns:cc="http://creativecommons.org/ns#"
   xmlns:rdf="http://www.w3.org/1999/02/22-rdf-syntax-ns#"
   xmlns:svg="http://www.w3.org/2000/svg"
   xmlns="http://www.w3.org/2000/svg"
   xmlns:xlink="http://www.w3.org/1999/xlink"
   xmlns:sodipodi="http://sodipodi.sourceforge.net/DTD/sodipodi-0.dtd"
   xmlns:inkscape="http://www.inkscape.org/namespaces/inkscape"
   width="48"
   height="48"
   id="svg5453"
   version="1.1"
   inkscape:version="0.91 r13725"
   sodipodi:docname="akregator.svg">
  <defs
     id="defs5455">
    <linearGradient
       id="linearGradient4227"
       inkscape:collect="always">
      <stop
         id="stop4229"
         offset="0"
         style="stop-color:#292c2f;stop-opacity:1" />
      <stop
         id="stop4231"
         offset="1"
         style="stop-color:#000000;stop-opacity:0;" />
    </linearGradient>
    <linearGradient
       inkscape:collect="always"
       id="linearGradient4300-8-4">
      <stop
         style="stop-color:#f27935;stop-opacity:1"
         offset="0"
         id="stop4302-5-4" />
      <stop
         style="stop-color:#f2784b;stop-opacity:1"
         offset="1"
         id="stop4304-7-6" />
    </linearGradient>
    <linearGradient
       inkscape:collect="always"
       xlink:href="#linearGradient4300-8-4"
       id="linearGradient4188"
       x1="43"
       y1="40"
       x2="13"
       y2="4"
       gradientUnits="userSpaceOnUse" />
    <linearGradient
       inkscape:collect="always"
       xlink:href="#linearGradient4227"
       id="linearGradient4319"
       x1="24.131727"
       y1="27.131727"
       x2="38"
       y2="41"
       gradientUnits="userSpaceOnUse" />
  </defs>
  <sodipodi:namedview
     id="base"
     pagecolor="#ffffff"
     bordercolor="#666666"
     borderopacity="1.0"
     inkscape:pageopacity="0"
     inkscape:pageshadow="2"
     inkscape:zoom="1"
     inkscape:cx="-21.035775"
     inkscape:cy="6.5779177"
     inkscape:document-units="px"
     inkscape:current-layer="layer1"
     showgrid="false"
     fit-margin-top="0"
     fit-margin-left="0"
     fit-margin-right="0"
     fit-margin-bottom="0"
     inkscape:window-width="1561"
     inkscape:window-height="1006"
     inkscape:window-x="359"
     inkscape:window-y="0"
     inkscape:window-maximized="0"
     inkscape:showpageshadow="false"
     borderlayer="true"
     showguides="false"
     inkscape:snap-bbox="true"
     inkscape:bbox-paths="false"
     inkscape:bbox-nodes="true"
     inkscape:object-nodes="true"
     inkscape:snap-center="true">
    <inkscape:grid
       type="xygrid"
       id="grid4063" />
    <sodipodi:guide
       position="1.1650391e-05,47.999996"
       orientation="4,0"
       id="guide4146" />
    <sodipodi:guide
       position="1.1650391e-05,43.999996"
       orientation="0,48"
       id="guide4148" />
    <sodipodi:guide
       position="48.000012,43.999996"
       orientation="-4,0"
       id="guide4150" />
    <sodipodi:guide
       position="48.000012,47.999996"
       orientation="0,-48"
       id="guide4152" />
    <sodipodi:guide
       position="1.1650391e-05,4.0000264"
       orientation="4,0"
       id="guide4154" />
    <sodipodi:guide
       position="1.1650391e-05,2.6367188e-05"
       orientation="0,48"
       id="guide4156" />
    <sodipodi:guide
       position="48.000012,2.6367188e-05"
       orientation="-4,0"
       id="guide4158" />
    <sodipodi:guide
       position="48.000012,4.0000264"
       orientation="0,-48"
       id="guide4160" />
    <sodipodi:guide
       position="48.000012,48.000026"
       orientation="0,-4"
       id="guide4162" />
    <sodipodi:guide
       position="44.000012,48.000026"
       orientation="48,0"
       id="guide4164" />
    <sodipodi:guide
       position="44.000012,2.6367188e-05"
       orientation="0,4"
       id="guide4166" />
    <sodipodi:guide
       position="48.000012,2.6367188e-05"
       orientation="-48,0"
       id="guide4168" />
    <sodipodi:guide
       position="4.0000422,48.000026"
       orientation="0,-4"
       id="guide4170" />
    <sodipodi:guide
       position="4.2167969e-05,48.000026"
       orientation="48,0"
       id="guide4172" />
    <sodipodi:guide
       position="4.2167969e-05,2.6367188e-05"
       orientation="0,4"
       id="guide4174" />
    <sodipodi:guide
       position="4.0000422,43.999996"
       orientation="39.999969,0"
       id="guide4175" />
    <sodipodi:guide
       position="4.0000422,4.0000264"
       orientation="0,20"
       id="guide4177" />
    <sodipodi:guide
       position="24.000042,4.0000264"
       orientation="-39.999969,0"
       id="guide4179" />
    <sodipodi:guide
       position="24.000042,43.999996"
       orientation="0,-20"
       id="guide4181" />
    <sodipodi:guide
       position="4.0000422,23.999843"
       orientation="20,0"
       id="guide4185" />
    <sodipodi:guide
       position="44.000012,3.9998433"
       orientation="-20,0"
       id="guide4189" />
    <sodipodi:guide
       position="44.000012,23.999843"
       orientation="0,-39.999969"
       id="guide4191" />
  </sodipodi:namedview>
  <metadata
     id="metadata5458">
    <rdf:RDF>
      <cc:Work
         rdf:about="">
        <dc:format>image/svg+xml</dc:format>
        <dc:type
           rdf:resource="http://purl.org/dc/dcmitype/StillImage" />
        <dc:title />
      </cc:Work>
    </rdf:RDF>
  </metadata>
  <g
     inkscape:label="Capa 1"
     inkscape:groupmode="layer"
     id="layer1"
     transform="translate(-384.57143,-499.798)">
    <path
       style="opacity:1;fill:url(#linearGradient4188);fill-opacity:1;stroke:none;stroke-width:6;stroke-linecap:round;stroke-linejoin:round;stroke-miterlimit:4;stroke-dasharray:none;stroke-opacity:1"
       d="M 11 4 C 9.3380022 4 8 5.3380022 8 7 L 8 29.083984 A 7.9999943 7.9999943 0 0 0 4 36 A 7.9999943 7.9999943 0 0 0 12 44 A 7.9999943 7.9999943 0 0 0 18.919922 40 L 41 40 C 42.661998 40 44 38.661998 44 37 L 44 7 C 44 5.3380022 42.661998 4 41 4 L 11 4 z "
       transform="translate(384.57143,499.798)"
       id="path4177" />
    <path
       style="opacity:0.2;fill:url(#linearGradient4319);fill-opacity:1;stroke:none;stroke-width:6;stroke-linecap:round;stroke-linejoin:round;stroke-miterlimit:4;stroke-dasharray:none;stroke-opacity:1"
       d="M 15 10 L 12 12 L 19 19 L 12 20 L 18 26 L 12 28 L 24 40 L 41 40 C 42.662 40 44 38.662 44 37 L 44 28.402344 L 31.798828 16.201172 L 29.808594 18.191406 L 23 12 L 15 10 z M 14.828125 33.171875 L 9.171875 38.828125 L 14.060547 43.71875 A 7.9999943 7.9999943 0 0 0 18.919922 40 L 21.658203 40 L 14.828125 33.171875 z "
       transform="translate(384.57143,499.798)"
       id="rect4307" />
    <path
       style="opacity:1;fill:#b86333;fill-opacity:1;stroke:none;stroke-width:6;stroke-linecap:round;stroke-linejoin:round;stroke-miterlimit:4;stroke-dasharray:none;stroke-opacity:1"
       d="M 4.0234375 35.488281 A 7.9999943 7.9999943 0 0 0 4 36 A 7.9999943 7.9999943 0 0 0 12 44 A 7.9999943 7.9999943 0 0 0 18.919922 40 L 41 40 C 42.661998 40 44 38.661998 44 37 L 44 36 C 44 37.662 42.662 39 41 39 L 18.919922 39 A 7.9999943 7.9999943 0 0 1 12 43 A 7.9999943 7.9999943 0 0 1 4.0234375 35.488281 z "
       transform="translate(384.57143,499.798)"
       id="path4279" />
    <path
       style="opacity:1;fill:#ffffff;fill-opacity:1;stroke:none;stroke-width:6;stroke-linecap:round;stroke-linejoin:round;stroke-miterlimit:4;stroke-dasharray:none;stroke-opacity:1"
       d="M 12 8 L 12 12 A 24 24 0 0 1 36 36 L 40 36 A 28 28 0 0 0 12 8 z M 12 16 L 12 20 A 16 16 0 0 1 28 36 L 32 36 A 20 20 0 0 0 12 16 z M 12 24 L 12 28 A 8 8 0 0 1 20 36 L 24 36 A 12 12 0 0 0 12 24 z M 12 32 A 4 4 0 0 0 8 36 A 4 4 0 0 0 12 40 A 4 4 0 0 0 16 36 A 4 4 0 0 0 12 32 z "
       transform="translate(384.57143,499.798)"
       id="path4190" />
  </g>
</svg>
